outputs/icons/image/awb_sharp.svg

<svg xmlns="http://www.w3.org/2000/svg" width="1200" height="1200" fill="none"><g fill="#000" clip-path="url(#a)"><path fill-rule="evenodd" d="M420.068 800h-86.133l-19.14-65.185H204.883L185.791 800H100l122.022-349.658h75.244zM223.975 669.68h70.947l-35.84-123z"/><path d="m532.375 669.68 46.385-219.338h67.04l47.56 219.338 38.23-219.338h77.98L740.135 800H657.13l-44.485-199.22L567.82 800h-81.833l-70.606-349.658h77.979z"/><path fill-rule="evenodd" d="M961.62 450.342c34.22-2.289 68.32 6.293 97.855 24.609 10.925 8.039 19.685 18.916 25.485 31.544 5.8 12.63 8.425 26.625 7.62 40.625.41 16.29-3.63 32.36-11.67 46.29-8.43 13.215-20.78 23.145-35.11 28.27 15.55 3.84 29.365 13.28 39.015 26.66 9.995 13.76 15.33 30.635 15.185 47.95.92 14.51-1.425 29.05-6.835 42.43-5.42 13.39-13.775 25.255-24.365 34.62-26.95 19.13-59.15 28.39-91.605 26.27l-136.47.39V450.342zm-40.965 286.963h52.635c12.025.75 23.93-3.065 33.545-10.695 4.39-3.53 7.9-8.145 10.205-13.425 2.31-5.285 3.34-11.09 3.03-16.895.575-5.92-.06-11.905-1.905-17.53-1.85-5.635-4.86-10.795-8.79-15.09a39 39 0 0 0-14.015-9.765 37.3 37.3 0 0 0-16.6-2.685L920.655 650zm40.965-223.39h-39.015l-1.95 81.155h42.09c13.725 1.325 27.495-2.295 39.015-10.255 3.775-3.675 6.7-8.205 8.59-13.235a37.8 37.8 0 0 0 2.295-15.865c.545-5.955-.24-11.97-2.34-17.53-2.105-5.56-5.435-10.515-9.72-14.455-11.64-7.61-25.305-11.04-38.965-9.815"/></g><defs><clipPath id="a"><path fill="#fff" d="M0 0h1200v1200H0z"/></clipPath></defs></svg>

<svg width="1200" height="1200" viewBox="0 0 1200 1200" fill="none" xmlns="http://www.w3.org/2000/svg"><g clip-path="url(#clip0_1108_3297)"><path fill-rule="evenodd" d="M420.068 800H333.935L314.795 734.815H204.883L185.791 800H100L222.022 450.342H297.266L420.068 800ZM223.975 669.68H294.922L259.082 546.68L223.975 669.68Z" fill="black"/><path d="M532.375 669.68L578.76 450.342H645.8L693.36 669.68L731.59 450.342H809.57L740.135 800H657.13L612.645 600.78L567.82 800H485.987L415.381 450.342H493.36L532.375 669.68Z" fill="black"/><path fill-rule="evenodd" d="M961.62 450.342C995.84 448.053 1029.94 456.635 1059.475 474.951C1070.4 482.99 1079.16 493.867 1084.96 506.495C1090.76 519.125 1093.385 533.12 1092.58 547.12C1092.99 563.41 1088.95 579.48 1080.91 593.41C1072.48 606.625 1060.13 616.555 1045.8 621.68C1061.35 625.52 1075.165 634.96 1084.815 648.34C1094.81 662.1 1100.145 678.975 1100 696.29C1100.92 710.8 1098.575 725.34 1093.165 738.72C1087.745 752.11 1079.39 763.975 1068.8 773.34C1041.85 792.47 1009.65 801.73 977.195 799.61L840.725 800V450.342H961.62ZM920.655 737.305H973.29C985.315 738.055 997.22 734.24 1006.835 726.61C1011.225 723.08 1014.735 718.465 1017.04 713.185C1019.35 707.9 1020.38 702.095 1020.07 696.29C1020.645 690.37 1020.01 684.385 1018.165 678.76C1016.315 673.125 1013.305 667.965 1009.375 663.67C1005.44 659.38 1000.65 656.06 995.36 653.905C990.075 651.755 984.415 650.835 978.76 651.22L920.655 650V737.305ZM961.62 513.915H922.605L920.655 595.07H962.745C976.47 596.395 990.24 592.775 1001.76 584.815C1005.535 581.14 1008.46 576.61 1010.35 571.58C1012.24 566.545 1013.02 561.11 1012.645 555.715C1013.19 549.76 1012.405 543.745 1010.305 538.185C1008.2 532.625 1004.87 527.67 1000.585 523.73C988.945 516.12 975.28 512.69 961.62 513.915Z" fill="black"/></g><defs><clipPath id="clip0_1108_3297"><path width="24" fill="white" d="M0 0H1200V1200H0V0z"/></clipPath></defs></svg>
